X: 28557
T: Murdo's Wedding
R: hornpipe
M: 4/4
K: Amajor
ec|A>A AB A2 (ce)|a2 fd e4|A>A AB A2 (ce)|f>e dc B2 (ec)|
A>A AB A2 (ce)|a2 fd e4|a2 (fd) e2 (dB)|A4 A4|
a2 (fd) e2 A2|a2 fd e4|A>A AB A2 (ce)|f>e dc B2 (ec)|
A>A AB A2 (ce)|a2 fd e4|a2 (fd) e2 (dB)|A4 A2z2|

